packages/kaspersky-hexa-ui-icons/src/iconsSVGs/24/SharedNetworkService.svg

<svg width="24" height="24" viewBox="0 0 24 24" fill="none" xmlns="http://www.w3.org/2000/svg">
<path fill-rule="evenodd" clip-rule="evenodd" d="M12 1C10.3431 1 9 2.34315 9 4C9 5.30622 9.83481 6.41746 11 6.82929V8.12602C9.59439 8.4878 8.4878 9.59439 8.12602 11H6.82929C6.41746 9.83481 5.30622 9 4 9C2.34315 9 1 10.3431 1 12C1 13.6569 2.34315 15 4 15C5.30622 15 6.41746 14.1652 6.82929 13H8.12602C8.4878 14.4056 9.59439 15.5122 11 15.874V17.1707C9.83481 17.5825 9 18.6938 9 20C9 21.6569 10.3431 23 12 23C13.6569 23 15 21.6569 15 20C15 18.6938 14.1652 17.5825 13 17.1707V15.874C14.4056 15.5122 15.5122 14.4056 15.874 13H17.1707C17.5825 14.1652 18.6938 15 20 15C21.6569 15 23 13.6569 23 12C23 10.3431 21.6569 9 20 9C18.6938 9 17.5825 9.83481 17.1707 11H15.874C15.5122 9.59439 14.4056 8.4878 13 8.12602V6.82929C14.1652 6.41746 15 5.30622 15 4C15 2.34315 13.6569 1 12 1ZM11 4C11 3.44772 11.4477 3 12 3C12.5523 3 13 3.44772 13 4C13 4.55228 12.5523 5 12 5C11.4477 5 11 4.55228 11 4ZM10 12C10 10.8954 10.8954 10 12 10C13.1046 10 14 10.8954 14 12C14 13.1046 13.1046 14 12 14C10.8954 14 10 13.1046 10 12ZM3 12C3 11.4477 3.44772 11 4 11C4.55228 11 5 11.4477 5 12C5 12.5523 4.55228 13 4 13C3.44772 13 3 12.5523 3 12ZM20 11C19.4477 11 19 11.4477 19 12C19 12.5523 19.4477 13 20 13C20.5523 13 21 12.5523 21 12C21 11.4477 20.5523 11 20 11ZM12 19C11.4477 19 11 19.4477 11 20C11 20.5523 11.4477 21 12 21C12.5523 21 13 20.5523 13 20C13 19.4477 12.5523 19 12 19Z" fill="black"/>
</svg>

<svg xmlns="http://www.w3.org/2000/svg" width="24" height="24" fill="none" viewBox="0 0 24 24"><path fill="#000" fill-rule="evenodd" d="M12 1c-1.6569 0-3 1.3432-3 3 0 1.3062.8348 2.4175 2 2.8293V8.126C9.5944 8.4878 8.4878 9.5944 8.126 11H6.8293C6.4175 9.8348 5.3063 9 4 9c-1.6568 0-3 1.3431-3 3s1.3432 3 3 3c1.3062 0 2.4175-.8348 2.8293-2H8.126c.3618 1.4056 1.4684 2.5122 2.874 2.874v1.2967C9.8348 17.5825 9 18.6938 9 20c0 1.6569 1.3431 3 3 3s3-1.3431 3-3c0-1.3062-.8348-2.4175-2-2.8293V15.874c1.4056-.3618 2.5122-1.4684 2.874-2.874h1.2967c.4118 1.1652 1.5231 2 2.8293 2 1.6569 0 3-1.3431 3-3s-1.3431-3-3-3c-1.3062 0-2.4175.8348-2.8293 2H15.874C15.5122 9.5944 14.4056 8.4878 13 8.126V6.8293c1.1652-.4118 2-1.523 2-2.8293 0-1.6568-1.3431-3-3-3m-1 3c0-.5523.4477-1 1-1s1 .4477 1 1-.4477 1-1 1-1-.4477-1-1m-1 8c0-1.1046.8954-2 2-2s2 .8954 2 2-.8954 2-2 2-2-.8954-2-2m-7 0c0-.5523.4477-1 1-1s1 .4477 1 1-.4477 1-1 1-1-.4477-1-1m17-1c-.5523 0-1 .4477-1 1s.4477 1 1 1 1-.4477 1-1-.4477-1-1-1m-8 8c-.5523 0-1 .4477-1 1s.4477 1 1 1 1-.4477 1-1-.4477-1-1-1"/></svg>
